X:75
T:Dance for ever
M:9/8
L:1/8
B:Thompson's Compleat Collection of 200 Favourite Country Dances, vol. 2 (London, 1765)
Z:Transcribed and edited by Flynn Titford-Mock, 2007
Z:abc's:AK/Fiddler's Companion
K:D
DFA AFD "tr"E2D | EGB BEE "tr"E3 | DFA AFD "tr"E2D | dcB AFD D3 :|
|: def fdf a2f | efe ecA "tr"B2A | def fdf a2f | efe ecA A2A :|
|: DFA AFD | BGE | DFA AFD | ECA, | DFA AFD dcB | ABA AFD D3 :|

